src/icons/file-js-test.svg

<?xml version="1.0" encoding="UTF-8" standalone="no"?>
<svg
   version="1.2"
   viewBox="0 0 16 16"
   width="16"
   height="16"
   id="svg3"
   sodipodi:docname="js-test.svg"
   inkscape:version="1.4 (e7c3feb100, 2024-10-09)"
   xmlns:inkscape="http://www.inkscape.org/namespaces/inkscape"
   xmlns:sodipodi="http://sodipodi.sourceforge.net/DTD/sodipodi-0.dtd"
   xmlns="http://www.w3.org/2000/svg"
   xmlns:svg="http://www.w3.org/2000/svg">
  <defs
     id="defs3" />
  <sodipodi:namedview
     id="namedview3"
     pagecolor="#505050"
     bordercolor="#eeeeee"
     borderopacity="1"
     inkscape:showpageshadow="0"
     inkscape:pageopacity="0"
     inkscape:pagecheckerboard="0"
     inkscape:deskcolor="#505050"
     inkscape:zoom="36.8125"
     inkscape:cx="8.0135823"
     inkscape:cy="8.0135823"
     inkscape:window-width="1326"
     inkscape:window-height="755"
     inkscape:window-x="20"
     inkscape:window-y="52"
     inkscape:window-maximized="0"
     inkscape:current-layer="svg3" />
  <title
     id="title1">js-svg</title>
  <style
     id="style1">
		.s0 { fill: #f5aa52 } 
		.s1 { fill: #8080a0 } 
		.s2 { fill: #8cc162 } 
	</style>
  <path
     id="path1"
     class="s0"
     d="M 7.9726562 3 C 7.9904767 3.1639883 8 3.3309771 8 3.5 C 8 6 6 8 3.5 8 C 3.3309771 8 3.1639883 7.9904767 3 7.9726562 L 3 11 C 3 12.4 3.0007813 13.099609 3.3007812 13.599609 C 3.5007813 14.099609 3.9003906 14.499219 4.4003906 14.699219 C 4.9003906 14.999219 5.6 15 7 15 L 11 15 C 12.4 15 13.099609 14.999219 13.599609 14.699219 C 14.099609 14.499219 14.499219 14.099609 14.699219 13.599609 C 14.999219 13.099609 15 12.4 15 11 L 15 7 C 15 5.6 14.999219 4.9003906 14.699219 4.4003906 C 14.499219 3.9003906 14.099609 3.5007813 13.599609 3.3007812 C 13.099609 3.0007813 12.4 3 11 3 L 7.9726562 3 z M 7.9003906 8.4003906 C 8.3670573 8.4003906 8.5996094 8.7007813 8.5996094 9.3007812 L 8.5996094 11.699219 C 8.5996094 12.299219 8.5007812 12.766276 8.3007812 13.099609 C 8.1007813 13.432943 7.8333333 13.700391 7.5 13.900391 C 7.1666667 14.033724 6.8003906 14.099609 6.4003906 14.099609 C 6.0003906 14.099609 5.6341146 14.033724 5.3007812 13.900391 C 4.9674479 13.767057 4.7 13.567448 4.5 13.300781 C 4.3 13.034115 4.1992187 12.665885 4.1992188 12.199219 C 4.1992188 11.999219 4.2670573 11.867448 4.4003906 11.800781 C 4.533724 11.667448 4.7003906 11.599609 4.9003906 11.599609 C 5.1003906 11.599609 5.2670573 11.667448 5.4003906 11.800781 C 5.533724 11.934115 5.6325521 12.133724 5.6992188 12.400391 C 5.6992187 12.533724 5.7341146 12.667448 5.8007812 12.800781 L 6 13 L 6.4003906 13 C 6.533724 13 6.6674479 12.967057 6.8007812 12.900391 C 6.9341146 12.833724 7.0329427 12.7 7.0996094 12.5 C 7.166276 12.233333 7.1992188 11.932943 7.1992188 11.599609 L 7.1992188 9.3007812 C 7.1992187 8.7007812 7.433724 8.4003906 7.9003906 8.4003906 z M 12.300781 8.4003906 C 12.634115 8.4003906 12.967448 8.4333333 13.300781 8.5 C 13.567448 8.5666667 13.832943 8.7003906 14.099609 8.9003906 L 14.400391 9.1992188 C 14.467057 9.3325521 14.5 9.466276 14.5 9.5996094 C 14.5 9.7329427 14.434115 9.8666667 14.300781 10 C 14.167448 10.066667 14.033724 10.099609 13.900391 10.099609 C 13.700391 10.099609 13.533724 10.066667 13.400391 10 C 13.333724 9.9333333 13.232943 9.8674479 13.099609 9.8007812 C 13.032943 9.6674479 12.934115 9.5666667 12.800781 9.5 C 12.667448 9.4333333 12.500781 9.4003906 12.300781 9.4003906 C 12.100781 9.4003906 11.934115 9.4333333 11.800781 9.5 C 11.734115 9.5 11.666276 9.5658854 11.599609 9.6992188 C 11.532943 9.7658854 11.5 9.833724 11.5 9.9003906 C 11.5 10.033724 11.565885 10.167448 11.699219 10.300781 C 11.899219 10.434115 12.199609 10.532943 12.599609 10.599609 C 12.999609 10.732943 13.365885 10.866667 13.699219 11 C 13.965885 11.133333 14.200391 11.3 14.400391 11.5 C 14.600391 11.766667 14.699219 12.067057 14.699219 12.400391 C 14.699219 12.733724 14.600391 13.034115 14.400391 13.300781 C 14.133724 13.567448 13.833333 13.767057 13.5 13.900391 C 13.166667 14.033724 12.732552 14.099609 12.199219 14.099609 C 11.799219 14.099609 11.432943 14.033724 11.099609 13.900391 C 10.766276 13.833724 10.500781 13.7 10.300781 13.5 C 10.034115 13.3 9.9003906 13.067448 9.9003906 12.800781 C 9.9003906 12.667448 9.9333333 12.533724 10 12.400391 C 10.066667 12.267057 10.200391 12.199219 10.400391 12.199219 C 10.600391 12.199219 10.767057 12.234115 10.900391 12.300781 C 11.033724 12.367448 11.132552 12.466276 11.199219 12.599609 C 11.332552 12.732943 11.499219 12.833724 11.699219 12.900391 C 11.832552 12.967057 12.034115 13 12.300781 13 L 12.699219 13 C 12.832552 12.933333 12.933333 12.867448 13 12.800781 C 13.133333 12.667448 13.199219 12.566667 13.199219 12.5 C 13.199219 12.3 13.100391 12.133333 12.900391 12 C 12.700391 11.933333 12.4 11.867448 12 11.800781 C 11.266667 11.600781 10.733724 11.366276 10.400391 11.099609 C 10.133724 10.766276 10 10.367057 10 9.9003906 C 10 9.633724 10.100781 9.366276 10.300781 9.0996094 C 10.500781 8.8996094 10.766276 8.7329427 11.099609 8.5996094 C 11.499609 8.466276 11.900781 8.4003906 12.300781 8.4003906 z " />
  <path
     id="path2"
     class="s2"
     d="M 3.5 0 C 1.6 0 0 1.6 0 3.5 C 0 5.4 1.6 7 3.5 7 C 5.4 7 7 5.4 7 3.5 C 7 1.6 5.4 0 3.5 0 z M 5 2.1503906 C 5.15 2.1503906 5.3003906 2.2007812 5.4003906 2.3007812 C 5.6003906 2.5007812 5.6003906 2.9 5.4003906 3 L 3.4003906 5 C 3.2003906 5.2 2.7996094 5.2 2.5996094 5 L 1.5996094 4 C 1.4996094 3.9 1.4996094 3.5007813 1.5996094 3.3007812 C 1.7996094 3.1007813 2.2003906 3.1007812 2.4003906 3.3007812 L 3 4 L 4.5996094 2.3007812 C 4.6996094 2.2007812 4.85 2.1503906 5 2.1503906 z " />
</svg>

<svg xmlns="http://www.w3.org/2000/svg" width="16" height="16" version="1.2"><path d="M7.973 3q.026.246.027.5C8 6 6 8 3.5 8q-.254 0-.5-.027V11c0 1.4 0 2.1.3 2.6.2.5.6.9 1.1 1.1.5.3 1.2.3 2.6.3h4c1.4 0 2.1 0 2.6-.3.5-.2.9-.6 1.1-1.1.3-.5.3-1.2.3-2.6V7c0-1.4 0-2.1-.3-2.6-.2-.5-.6-.9-1.1-1.1C13.1 3 12.4 3 11 3zM7.9 8.4q.7 0 .7.9v2.4q0 .9-.3 1.4t-.8.8q-.5.2-1.1.2t-1.1-.2a1.8 1.8 0 0 1-.8-.6q-.3-.4-.3-1.1 0-.3.2-.4a.68.68 0 0 1 .5-.2q.3 0 .5.2.2.201.3.6 0 .2.1.4l.2.2h.4a.9.9 0 0 0 .4-.1q.2-.1.3-.4.1-.4.1-.9V9.3q0-.9.7-.9m4.4 0q.5 0 1 .1.4.1.8.4l.3.3q.1.2.1.4t-.2.4a.9.9 0 0 1-.4.1q-.3 0-.5-.1a1.2 1.2 0 0 0-.3-.2.65.65 0 0 0-.3-.3q-.2-.1-.5-.1t-.5.1q-.1 0-.2.2-.1.1-.1.2 0 .2.2.4.3.2.9.3.6.2 1.1.4.4.2.7.5.3.4.3.9 0 .501-.3.9a2.7 2.7 0 0 1-.9.6q-.5.2-1.3.2-.6 0-1.1-.2-.5-.1-.8-.4-.4-.3-.4-.7 0-.2.1-.4t.4-.2.5.1a.65.65 0 0 1 .3.3q.2.2.5.3.2.1.6.1h.4a1.2 1.2 0 0 0 .3-.2q.2-.2.2-.3 0-.3-.3-.5-.3-.1-.9-.2-1.1-.3-1.6-.7-.4-.5-.4-1.2 0-.4.3-.8.3-.3.8-.5.6-.2 1.2-.2" style="fill:#f5aa52"/><path d="M3.5 0C1.6 0 0 1.6 0 3.5S1.6 7 3.5 7 7 5.4 7 3.5 5.4 0 3.5 0M5 2.15c.15 0 .3.05.4.15.2.2.2.6 0 .7l-2 2c-.2.2-.6.2-.8 0l-1-1c-.1-.1-.1-.5 0-.7.2-.2.6-.2.8 0L3 4l1.6-1.7c.1-.1.25-.15.4-.15" style="fill:#8cc162"/></svg>
